!!!SOCIAL_FUNCTION:	songs with treatment of the sick
!!!PDT:	1943
!!!OTL: No_11_I_Am_Going_to_Cure_This_Sick_Man.krn
!!!REG: British Columbia
**kern	**kern
*staff2	*staff1
=1-	=1-
*clefF4	*clefF4
*k[b-]	*k[b-]
*M2/4	*M2/4
8GG/L	4r
8GG/J	.
8GG/L	8.r
8GG/J	.
.	16D\
=2	=2
8GG/L	4F\
8GG/J	.
4r	4A\
=3	=3
2r	8c\
.	16r
.	16c\
.	12c\L
.	12A\
.	12F\J
=4!|:	=4!|:
2r	4A\
.	4F\
=5	=5
2r	4F\
.	4F\
=6	=6
2r	8.A\L
.	16A\Jk
.	4A\
=7	=7
2r	8.A\L
.	16G\Jk
.	8F\
.	8r
=8	=8
2r	4F\
.	4D\
=9	=9
2r	4D\
.	8D\
.	8r
=10	=10
2r	4D\
.	4F\
=11	=11
2r	12A\L
.	12G\
.	12F\J
.	8.F\L
.	16D\Jk
=12	=12
2r	4F\
.	4D\
=13	=13
2r	4D\
.	8D\
.	8r
=14	=14
2r	8D\L
.	8D\J
.	4D\
=15	=15
2r	8.D\L
.	16D\Jk
.	8D\
.	8r
=16	=16
2r	2D\
=17	=17
2r	4F\
.	8G\L
.	16F\Jk
.	16r
=18	=18
2r	4F\
.	4A\
=19	=19
2r	8.c\L
.	16c\Jk
.	8.A\L
.	16F\Jk
==:|!	==:|!
*-	*-
